X:1
T:Title
%%score { 1 | 2 }
L:1/8
M:6/8
K:G
V:1 treble nm="Grand Piano"
V:2 treble 
V:1
 z3 z2[Q:1/4=84] D/D/ | G>AB d<de | d3 B2 B/c/ | dBA GFG | [FA]3- [FA]2 D | %5
 [FA][FA][GB] [Ac][GB][FA] |[M:5/8] BBc d2 |[M:1/8] B/B/ |[M:3/4] AB d^c de | %9
[M:5/8] [Fd]-[Fd]- [Fd]3 |[M:1/8] [Fd]/[Fd]/ |[M:3/4] [Fd][Fc] [CE][DF]/[FB]/- [FB]A | G3 D2 d | %13
 [Fd][Fc] EF G[EA] | [^DB]4- [DB][DB]/[DB]/ | [Dc][Dc] [Dc][Dc] [DB][DA] | [Dd]3 [Dd]2 [Ec] | %17
 BB BA AA |[M:5/8] [B,DG]-[B,DG]- [B,DG]3 |] %19
V:2
 z3 z2 [G,B,]/[G,B,]/ | [G,B,D]>[G,CD][G,DG] [G,B,G]<[G,B,G][G,CG] | %2
 [G,B,G]3 [G,DG]2 [G,DG]/[G,A,G]/ | [G,B,G][G,DG][K:bass][G,CD] [G,B,D][A,CD][G,B,D] | %4
 [D,D]3- [D,D]2 [D,F,] | [D,D][D,D][D,D] [D,D][D,D][D,D] | %6
[M:5/8][K:treble] [G,DG][G,DG][G,A,G] [G,B,G]2 |[M:1/8] [G,DG]/[G,DG]/ | %8
[M:3/4] [A,DF][A,DF] [A,DF][A,EG] [A,DF][A,^CG] |[M:5/8][K:bass] [D,A,D]-[D,A,D]- [D,A,D]3 | %10
[M:1/8] [D,A,]/[D,A,]/ |[M:3/4] [D,A,][D,A,] [D,A,][D,A,]/[D,D]/- [D,D][D,CD] | %12
 [G,B,D]3 [G,B,]2 [G,B,G] | [D,A,][D,A,] [D,A,C][D,A,C] [E,G,B,][C,E,] | %14
 [B,,F,]4- [B,,F,][B,,F,]/[B,,F,]/ | [A,,F,][A,,F,] [A,,F,][D,A,] [D,G,][C,F,] | %16
 [B,,G,]3 [B,,G,]2 [C,G,] | [D,G,D][D,G,D] [D,G,D][D,CD] [D,CD][D,CD] |[M:5/8] G,,-G,,- G,,3 |] %19

